images/aTUSD.svg

<svg height="250" viewBox="0 0 250 250" width="250" xmlns="http://www.w3.org/2000/svg" xmlns:xlink="http://www.w3.org/1999/xlink"><linearGradient id="a" gradientUnits="userSpaceOnUse" x1="210.75" x2="51.5" y1="33.75" y2="221.5"><stop offset="0" stop-color="#b6509e"/><stop offset="1" stop-color="#2ebac6"/></linearGradient><path d="m250 125c0 69.035156-55.964844 125-125 125s-125-55.964844-125-125 55.964844-125 125-125 125 55.964844 125 125zm0 0" fill="#fff"/><path d="m125 250c-8.460938.003906-16.902344-.847656-25.195312-2.539062-15.988282-3.273438-31.175782-9.667969-44.699219-18.808594-20.09375-13.566406-35.828125-32.671875-45.285157-54.996094-3.195312-7.5625-5.632812-15.417969-7.28125-23.460938-3.386718-16.625-3.386718-33.761718 0-50.382812 3.273438-15.988281 9.664063-31.179688 18.808594-44.699219 13.566406-20.097656 32.671875-35.828125 54.996094-45.289062 7.5625-3.199219 15.417969-5.636719 23.460938-7.285157 16.625-3.386718 33.761718-3.386718 50.382812 0 15.988281 3.273438 31.179688 9.664063 44.699219 18.808594 20.097656 13.566406 35.828125 32.671875 45.289062 54.996094 3.195313 7.5625 5.636719 15.417969 7.285157 23.460938 3.386718 16.625 3.386718 33.761718 0 50.382812-3.273438 15.992188-9.664063 31.179688-18.808594 44.699219-13.566406 20.09375-32.671875 35.828125-54.996094 45.285156-7.5625 3.199219-15.417969 5.640625-23.460938 7.289063-8.292968 1.691406-16.734374 2.542968-25.195312 2.539062zm0-236.609375c-7.554688 0-15.089844.757813-22.492188 2.269531-14.277343 2.921875-27.839843 8.628906-39.910156 16.792969-17.941406 12.113281-31.984375 29.171875-40.429687 49.105469-2.855469 6.75-5.03125 13.769531-6.503907 20.949218-3.023437 14.839844-3.023437 30.140626 0 44.984376 2.925782 14.277343 8.632813 27.835937 16.796876 39.90625 12.113281 17.945312 29.171874 31.992187 49.105468 40.4375 6.75 2.855468 13.769532 5.03125 20.949219 6.503906 14.84375 3.023437 30.144531 3.023437 44.984375 0 14.277344-2.925782 27.839844-8.632813 39.910156-16.796875 17.9375-12.113281 31.976563-29.171875 40.421875-49.101563 2.855469-6.75 5.03125-13.769531 6.503907-20.949218 3.023437-14.84375 3.023437-30.144532 0-44.984376-2.925782-14.277343-8.632813-27.835937-16.796876-39.90625-12.113281-17.941406-29.167968-31.988281-49.097656-40.433593-6.75-2.855469-13.769531-5.03125-20.949218-6.503907-7.402344-1.511718-14.9375-2.273437-22.492188-2.273437zm0 0" fill="url(#a)"/><path d="m125 220.980469c-52.789062 0-95.980469-43.191407-95.980469-95.980469s43.191407-95.980469 95.980469-95.980469 95.980469 43.191407 95.980469 95.980469-43.191407 95.980469-95.980469 95.980469zm0 0" fill="#002868"/><path d="m173.375 182.585938h-96.75c-5.082031-.011719-9.199219-4.128907-9.214844-9.210938v-96.75c.015625-5.082031 4.132813-9.199219 9.214844-9.214844h96.75c5.082031.015625 9.199219 4.132813 9.210938 9.214844v96.75c-.011719 5.082031-4.128907 9.199219-9.210938 9.210938zm0 0" fill="#fff"/><g fill="#002868"><path d="m89.882812 170.992188c-.308593-.011719-.550781-.269532-.546874-.578126v-15.476562c.003906-.308594-.238282-.5625-.550782-.578125h-5.460937c-.308594.003906-.566407-.238281-.582031-.550781v-2.992188c.011718-.3125.265624-.566406.582031-.578125h16.816406c.316406.011719.570313.265625.578125.578125v2.996094c-.011719.308594-.269531.550781-.578125.550781h-5.433594c-.316406.007813-.570312.261719-.582031.578125v15.472656c.003906.308594-.238281.566407-.546875.582032zm0 0"/><path d="m117.5 150.820312c0-.308593.242188-.566406.550781-.582031h3.664063c.3125.011719.566406.265625.578125.582031v10.558594c0 6.257813-3.539063 9.890625-9.15625 9.890625-5.585938 0-9.09375-3.632812-9.09375-9.890625v-10.558594c-.003907-.308593.238281-.566406.546875-.582031h3.664062c.316406.011719.570313.265625.578125.582031v10.707032c0 3.082031 1.585938 5.28125 4.335938 5.28125s4.335937-2.199219 4.335937-5.28125v-10.707032zm0 0"/><path d="m139.117188 157.019531c-.371094.035157-.71875-.195312-.824219-.550781-.734375-1.617188-2.410157-2.597656-4.183594-2.441406-1.921875 0-3.539063.671875-3.539063 1.953125 0 1.40625 1.496094 1.988281 4.792969 2.382812 5.003907.578125 7.871094 2.105469 7.871094 6.074219 0 4.457031-3.90625 6.804688-8.910156 6.804688-4.335938 0-8.058594-2.105469-8.636719-6.53125-.0625-.425782.152344-.578126.578125-.578126h3.359375c.355469-.035156.683594.179688.796875.519532.457031 1.464844 2.015625 2.59375 4.273437 2.59375 1.984376 0 3.722657-.734375 3.722657-2.289063 0-1.859375-1.832031-2.195312-5.496094-2.65625-4.210937-.546875-7.140625-1.769531-7.140625-5.648437 0-3.875 3.332031-6.652344 8.546875-6.652344 4.699219 0 7.96875 2.535156 8.640625 6.320312.089844.425782-.03125.703126-.488281.703126h-3.363281zm0 0"/><path d="m147.386719 170.992188c-.308594-.011719-.550781-.269532-.550781-.578126v-19.59375c0-.308593.242187-.566406.550781-.582031h8.300781c6.164062 0 10.957031 4.242188 10.957031 10.441407 0 6.101562-4.730469 10.316406-10.957031 10.316406zm8.300781-4.121094c3.324219-.183594 5.925781-2.941406 5.917969-6.273438-.007813-3.332031-2.621094-6.074218-5.949219-6.242187h-3.445312c-.3125.011719-.554688.269531-.550782.578125v11.378906c0 .304688.246094.550781.550782.550781h3.476562zm0 0"/><path d="m179.519531 138.820312h-109.035156c-.847656 0-1.535156-.6875-1.539063-1.535156v-60.660156c.011719-4.234375 3.445313-7.667969 7.679688-7.679688h96.75c4.234375.011719 7.667969 3.445313 7.679688 7.679688v60.660156c-.003907.847656-.691407 1.535156-1.535157 1.535156zm0 0"/></g><path d="m130.65625 126.367188h-9.984375c-.636719-.003907-1.148437-.515626-1.152344-1.152344v-42.230469c.003907-.636719.515625-1.152344 1.152344-1.152344h9.984375c.632812 0 1.148438.515625 1.148438 1.152344v42.230469c0 .636718-.515626 1.148437-1.148438 1.152344zm0 0" fill="#fff"/><path d="m147.652344 94.117188h-45.304688c-.636718-.003907-1.148437-.515626-1.152344-1.152344v-9.980469c.003907-.636719.515626-1.152344 1.152344-1.152344h45.304688c.632812 0 1.148437.515625 1.152344 1.152344v9.980469c-.003907.636718-.519532 1.148437-1.152344 1.152344zm0 0" fill="#fff"/></svg>

<svg xmlns="http://www.w3.org/2000/svg" xmlns:xlink="http://www.w3.org/1999/xlink" width="250px" height="250px" viewBox="0 0 250 250" version="1.1">
<defs>
<linearGradient id="linear0" gradientUnits="userSpaceOnUse" x1="0.843" y1="0.135" x2="0.206" y2="0.886" gradientTransform="matrix(250,0,0,250,0,0)">
<stop offset="0" style="stop-color:rgb(71.372551%,31.37255%,61.960787%);stop-opacity:1;"/>
<stop offset="1" style="stop-color:rgb(18.039216%,72.941178%,77.64706%);stop-opacity:1;"/>
</linearGradient>
</defs>
<g id="surface1">
<path style=" stroke:none;fill-rule:nonzero;fill:rgb(100%,100%,100%);fill-opacity:1;" d="M 250 125 C 250 194.035156 194.035156 250 125 250 C 55.964844 250 0 194.035156 0 125 C 0 55.964844 55.964844 0 125 0 C 194.035156 0 250 55.964844 250 125 Z M 250 125 "/>
<path style=" stroke:none;fill-rule:nonzero;fill:url(#linear0);" d="M 125 250 C 116.539062 250.003906 108.097656 249.152344 99.804688 247.460938 C 83.816406 244.1875 68.628906 237.792969 55.105469 228.652344 C 35.011719 215.085938 19.277344 195.980469 9.820312 173.65625 C 6.625 166.09375 4.1875 158.238281 2.539062 150.195312 C -0.847656 133.570312 -0.847656 116.433594 2.539062 99.8125 C 5.8125 83.824219 12.203125 68.632812 21.347656 55.113281 C 34.914062 35.015625 54.019531 19.285156 76.34375 9.824219 C 83.90625 6.625 91.761719 4.1875 99.804688 2.539062 C 116.429688 -0.847656 133.566406 -0.847656 150.1875 2.539062 C 166.175781 5.8125 181.367188 12.203125 194.886719 21.347656 C 214.984375 34.914062 230.714844 54.019531 240.175781 76.34375 C 243.371094 83.90625 245.8125 91.761719 247.460938 99.804688 C 250.847656 116.429688 250.847656 133.566406 247.460938 150.1875 C 244.1875 166.179688 237.796875 181.367188 228.652344 194.886719 C 215.085938 214.980469 195.980469 230.714844 173.65625 240.171875 C 166.09375 243.371094 158.238281 245.8125 150.195312 247.460938 C 141.902344 249.152344 133.460938 250.003906 125 250 Z M 125 13.390625 C 117.445312 13.390625 109.910156 14.148438 102.507812 15.660156 C 88.230469 18.582031 74.667969 24.289062 62.597656 32.453125 C 44.65625 44.566406 30.613281 61.625 22.167969 81.558594 C 19.3125 88.308594 17.136719 95.328125 15.664062 102.507812 C 12.640625 117.347656 12.640625 132.648438 15.664062 147.492188 C 18.589844 161.769531 24.296875 175.328125 32.460938 187.398438 C 44.574219 205.34375 61.632812 219.390625 81.566406 227.835938 C 88.316406 230.691406 95.335938 232.867188 102.515625 234.339844 C 117.359375 237.363281 132.660156 237.363281 147.5 234.339844 C 161.777344 231.414062 175.339844 225.707031 187.410156 217.542969 C 205.347656 205.429688 219.386719 188.371094 227.832031 168.441406 C 230.6875 161.691406 232.863281 154.671875 234.335938 147.492188 C 237.359375 132.648438 237.359375 117.347656 234.335938 102.507812 C 231.410156 88.230469 225.703125 74.671875 217.539062 62.601562 C 205.425781 44.660156 188.371094 30.613281 168.441406 22.167969 C 161.691406 19.3125 154.671875 17.136719 147.492188 15.664062 C 140.089844 14.152344 132.554688 13.390625 125 13.390625 Z M 125 13.390625 "/>
<path style=" stroke:none;fill-rule:nonzero;fill:rgb(0%,15.686275%,40.784314%);fill-opacity:1;" d="M 125 220.980469 C 72.210938 220.980469 29.019531 177.789062 29.019531 125 C 29.019531 72.210938 72.210938 29.019531 125 29.019531 C 177.789062 29.019531 220.980469 72.210938 220.980469 125 C 220.980469 177.789062 177.789062 220.980469 125 220.980469 Z M 125 220.980469 "/>
<path style=" stroke:none;fill-rule:nonzero;fill:rgb(100%,100%,100%);fill-opacity:1;" d="M 173.375 182.585938 L 76.625 182.585938 C 71.542969 182.574219 67.425781 178.457031 67.410156 173.375 L 67.410156 76.625 C 67.425781 71.542969 71.542969 67.425781 76.625 67.410156 L 173.375 67.410156 C 178.457031 67.425781 182.574219 71.542969 182.585938 76.625 L 182.585938 173.375 C 182.574219 178.457031 178.457031 182.574219 173.375 182.585938 Z M 173.375 182.585938 "/>
<path style=" stroke:none;fill-rule:nonzero;fill:rgb(0%,15.686275%,40.784314%);fill-opacity:1;" d="M 89.882812 170.992188 C 89.574219 170.980469 89.332031 170.722656 89.335938 170.414062 L 89.335938 154.9375 C 89.339844 154.628906 89.097656 154.375 88.785156 154.359375 L 83.324219 154.359375 C 83.015625 154.363281 82.757812 154.121094 82.742188 153.808594 L 82.742188 150.816406 C 82.753906 150.503906 83.007812 150.25 83.324219 150.238281 L 100.140625 150.238281 C 100.457031 150.25 100.710938 150.503906 100.71875 150.816406 L 100.71875 153.8125 C 100.707031 154.121094 100.449219 154.363281 100.140625 154.363281 L 94.707031 154.363281 C 94.390625 154.371094 94.136719 154.625 94.125 154.941406 L 94.125 170.414062 C 94.128906 170.722656 93.886719 170.980469 93.578125 170.996094 Z M 89.882812 170.992188 "/>
<path style=" stroke:none;fill-rule:nonzero;fill:rgb(0%,15.686275%,40.784314%);fill-opacity:1;" d="M 117.5 150.820312 C 117.5 150.511719 117.742188 150.253906 118.050781 150.238281 L 121.714844 150.238281 C 122.027344 150.25 122.28125 150.503906 122.292969 150.820312 L 122.292969 161.378906 C 122.292969 167.636719 118.753906 171.269531 113.136719 171.269531 C 107.550781 171.269531 104.042969 167.636719 104.042969 161.378906 L 104.042969 150.820312 C 104.039062 150.511719 104.28125 150.253906 104.589844 150.238281 L 108.253906 150.238281 C 108.570312 150.25 108.824219 150.503906 108.832031 150.820312 L 108.832031 161.527344 C 108.832031 164.609375 110.417969 166.808594 113.167969 166.808594 C 115.917969 166.808594 117.503906 164.609375 117.503906 161.527344 L 117.503906 150.820312 Z M 117.5 150.820312 "/>
<path style=" stroke:none;fill-rule:nonzero;fill:rgb(0%,15.686275%,40.784314%);fill-opacity:1;" d="M 139.117188 157.019531 C 138.746094 157.054688 138.398438 156.824219 138.292969 156.46875 C 137.558594 154.851562 135.882812 153.871094 134.109375 154.027344 C 132.1875 154.027344 130.570312 154.699219 130.570312 155.980469 C 130.570312 157.386719 132.066406 157.96875 135.363281 158.363281 C 140.367188 158.941406 143.234375 160.46875 143.234375 164.4375 C 143.234375 168.894531 139.328125 171.242188 134.324219 171.242188 C 129.988281 171.242188 126.265625 169.136719 125.6875 164.710938 C 125.625 164.285156 125.839844 164.132812 126.265625 164.132812 L 129.625 164.132812 C 129.980469 164.097656 130.308594 164.3125 130.421875 164.652344 C 130.878906 166.117188 132.4375 167.246094 134.695312 167.246094 C 136.679688 167.246094 138.417969 166.511719 138.417969 164.957031 C 138.417969 163.097656 136.585938 162.761719 132.921875 162.300781 C 128.710938 161.753906 125.78125 160.53125 125.78125 156.652344 C 125.78125 152.777344 129.113281 150 134.328125 150 C 139.027344 150 142.296875 152.535156 142.96875 156.320312 C 143.058594 156.746094 142.9375 157.023438 142.480469 157.023438 L 139.117188 157.023438 Z M 139.117188 157.019531 "/>
<path style=" stroke:none;fill-rule:nonzero;fill:rgb(0%,15.686275%,40.784314%);fill-opacity:1;" d="M 147.386719 170.992188 C 147.078125 170.980469 146.835938 170.722656 146.835938 170.414062 L 146.835938 150.820312 C 146.835938 150.511719 147.078125 150.253906 147.386719 150.238281 L 155.6875 150.238281 C 161.851562 150.238281 166.644531 154.480469 166.644531 160.679688 C 166.644531 166.78125 161.914062 170.996094 155.6875 170.996094 Z M 155.6875 166.871094 C 159.011719 166.6875 161.613281 163.929688 161.605469 160.597656 C 161.597656 157.265625 158.984375 154.523438 155.65625 154.355469 L 152.210938 154.355469 C 151.898438 154.367188 151.65625 154.625 151.660156 154.933594 L 151.660156 166.3125 C 151.660156 166.617188 151.90625 166.863281 152.210938 166.863281 L 155.6875 166.863281 Z M 155.6875 166.871094 "/>
<path style=" stroke:none;fill-rule:nonzero;fill:rgb(0%,15.686275%,40.784314%);fill-opacity:1;" d="M 179.519531 138.820312 L 70.484375 138.820312 C 69.636719 138.820312 68.949219 138.132812 68.945312 137.285156 L 68.945312 76.625 C 68.957031 72.390625 72.390625 68.957031 76.625 68.945312 L 173.375 68.945312 C 177.609375 68.957031 181.042969 72.390625 181.054688 76.625 L 181.054688 137.285156 C 181.050781 138.132812 180.363281 138.820312 179.519531 138.820312 Z M 179.519531 138.820312 "/>
<path style=" stroke:none;fill-rule:nonzero;fill:rgb(100%,100%,100%);fill-opacity:1;" d="M 130.65625 126.367188 L 120.671875 126.367188 C 120.035156 126.363281 119.523438 125.851562 119.519531 125.214844 L 119.519531 82.984375 C 119.523438 82.347656 120.035156 81.832031 120.671875 81.832031 L 130.65625 81.832031 C 131.289062 81.832031 131.804688 82.347656 131.804688 82.984375 L 131.804688 125.214844 C 131.804688 125.851562 131.289062 126.363281 130.65625 126.367188 Z M 130.65625 126.367188 "/>
<path style=" stroke:none;fill-rule:nonzero;fill:rgb(100%,100%,100%);fill-opacity:1;" d="M 147.652344 94.117188 L 102.347656 94.117188 C 101.710938 94.113281 101.199219 93.601562 101.195312 92.964844 L 101.195312 82.984375 C 101.199219 82.347656 101.710938 81.832031 102.347656 81.832031 L 147.652344 81.832031 C 148.285156 81.832031 148.800781 82.347656 148.804688 82.984375 L 148.804688 92.964844 C 148.800781 93.601562 148.285156 94.113281 147.652344 94.117188 Z M 147.652344 94.117188 "/>
</g>
</svg>
